!!!COM: Palestrina, Giovanni Perluigi da
!!!OPR: Missa De beata virgine (1567)
!!!OTL: Agnus I
**kern	**kern	**kern	**kern
*Ibass	*Itenor	*Icalto	*Icant
!Bassus	!Tenor	!Altus	!Cantus
*clefF4	*clefGv2	*clefG2	*clefG2
*k[b-]	*k[b-]	*k[b-]	*k[b-]
*?:X	*?:X	*?:X	*?:X
*M4/2	*M4/2	*M4/2	*M4/2
=1	=1	=1	=1
0r	0r	0g	0r
=2	=2	=2	=2
0r	0r	2.e	0r
.	.	8d	.
.	.	8c	.
.	.	1d	.
=3	=3	=3	=3
0r	0c	2.c	0r
.	.	4d	.
.	.	4e	.
.	.	4f	.
.	.	2g	.
=4	=4	=4	=4
0r	2.A	2c	0r
.	.	1f	.
.	8G	.	.
.	8F	.	.
.	1G	.	.
.	.	2e	.
=5	=5	=5	=5
0r	2.F	2.a	0cc
.	4G	4g	.
.	4A	2f	.
.	4B-	.	.
.	2c	2e	.
=6	=6	=6	=6
0r	2F	1f	2.a
.	1f	.	.
.	.	.	8g
.	.	.	8f
.	.	1c	1g
.	2e	.	.
=7	=7	=7	=7
0r	1.d	2r	2.f
.	.	4d	.
.	.	4e	4g
.	.	4f	4a
.	.	4g	4b-
.	2A	[2a	2cc
=8	=8	=8	=8
0r	1d	2a]	2f
.	.	2f	1ff
.	1c	1g	.
.	.	.	4ee
.	.	.	4dd
=9	=9	=9	=9
0c	2r	1g	0ee
.	4c	.	.
.	4d	.	.
.	4e	2r	.
.	4f	.	.
.	2g	[2cc	.
=10	=10	=10	=10
2.A	2c	2cc]	0r
.	1f	2a	.
8G	.	.	.
8F	.	.	.
1G	.	2.b	.
.	2e	.	.
.	.	4g	.
=11	=11	=11	=11
2.F	1f	4a	0cc
.	.	4b-	.
.	.	1a	.
4G	.	.	.
4A	1c	.	.
4B-	.	.	.
2c	.	[2g	.
=12	=12	=12	=12
1F	0r	4g]	2.a
.	.	4f	.
.	.	1f	.
.	.	.	8g
.	.	.	8f
2.c	.	.	2g
.	.	4e	[2cc
4B-	.	4d	.
=13	=13	=13	=13
4A	0c	2e	4cc]
4G	.	.	4b-
1F	.	1f	4a
.	.	.	4g
.	.	.	2a
2E	.	2g	[2g
=14	=14	=14	=14
1F	1A	[0c	4g]
.	.	.	4f
.	.	.	1f
1C	1G	.	.
.	.	.	2e
=15	=15	=15	=15
1F	1F	1c]	2.f
.	.	.	4g
1r	1F	2r	4a
.	.	.	4g
.	.	[2f	4a
.	.	.	4b-
=16	=16	=16	=16
1.F	1A	2f]	1cc
.	.	1a	.
.	[1c	.	1r
4E	.	4g	.
4D	.	4f	.
=17	=17	=17	=17
2E	1c]	2g	0r
2F	.	2.a	.
2.D	[1d	.	.
.	.	4g	.
.	.	4f	.
4C	.	4e	.
=18	=18	=18	=18
1BB-	1d]	4d	1f
.	.	4c	.
.	.	2B-	.
1F	2c	2A	1a
.	[2f	[2a	.
=19	=19	=19	=19
0r	2f]	2a]	0cc
.	4e	4g	.
.	4d	4f	.
.	2e	2g	.
.	2f	2a	.
=20	=20	=20	=20
0r	2.d	2b-	0dd
.	.	1a	.
.	4c	.	.
.	1B-	.	.
.	.	2g	.
=21	=21	=21	=21
1F	2A	0a	1cc
.	1f	.	.
1A	.	.	1cc
.	2e	.	.
=22	=22	=22	=22
1B	1d	2r	1dd
.	.	1g	.
4c	2r	.	1ee
4B-	.	.	.
4A	[2c	[2a	.
4G	.	.	.
=23	=23	=23	=23
4F	2c]	2a]	1.ff
4E	.	.	.
4D	1d	2a	.
4C	.	.	.
2BB-	.	2b-	.
2C	2e	2g	2ee
=24	=24	=24	=24
1F	2.f	1a	2dd
.	.	.	1cc
.	4e	.	.
1G	1d	1g	.
.	.	.	2b
=25	=25	=25	=25
1C	0c	2r	0cc
.	.	1g	.
1c	.	.	.
.	.	2e	.
=26	=26	=26	=26
2A	0r	1c	0r
1F	.	.	.
.	.	2d	.
2G	.	[2e	.
=27	=27	=27	=27
2A	0r	4e]	1cc
.	.	4c	.
4F	.	1f	.
4G	.	.	.
4A	.	.	1a
4B-	.	.	.
4c	.	2e	.
4A	.	.	.
=28	=28	=28	=28
2.B-	0r	2d	1f
.	.	1f	.
4A	.	.	.
2B-	.	.	1g
2c	.	2e	.
=29	=29	=29	=29
1F	1f	2d	1.a
.	.	2c	.
1r	1d	[1f	.
.	.	.	4g
.	.	.	4f
=30	=30	=30	=30
0r	1B-	2f]	0g
.	.	4e	.
.	.	4d	.
.	[1c	1e	.
=31	=31	=31	=31
1F	1c]	2f	1f
.	.	1a	.
1D	[1d	.	2r
.	.	2a	[2ff
=32	=32	=32	=32
1BB-	1d]	1b-	2ff]
.	.	.	2dd
1C	[1c	2a	2ee
.	.	2g	2ee
=33	=33	=33	=33
0D	2c]	1f	0ff
.	4B	.	.
.	4A	.	.
.	1B	1d	.
=34	=34	=34	=34
0C	1c	2r	1ee
.	.	1g	.
.	1g	.	2r
.	.	2e	[2gg
=35	=35	=35	=35
1c	1e	2c	2gg]
.	.	2g	1ee
1A	2c	[1a	.
.	2e	.	[2cc
=36	=36	=36	=36
0F	0f	0a]	2cc]
.	.	.	2.dd
.	.	.	4cc
.	.	.	[2cc
=37	=37	=37	=37
1G	1d	1g	2cc]
.	.	.	2b
2.A	[1c	2r	2.cc
.	.	2e	.
4G	.	.	4b-
=38	=38	=38	=38
2F	1c]	2f	2a
2E	.	2c	2g
2.F	1A	4d	2f
.	.	4c	.
.	.	[2c	[2a
4E	.	.	.
=39	=39	=39	=39
1D	1F	4c]	2a]
.	.	8B-	.
.	.	8A	.
.	.	2B	4g
.	.	.	4f
[1C	1G	[1c	4e
.	.	.	4f
.	.	.	[2g
=40	=40	=40	=40
0C]	2.A	0c]	2g]
.	.	.	1f
.	8G	.	.
.	8F	.	.
.	1G	.	.
.	.	.	2e
=41	=41	=41	=41
[0F	[0F	[0c	[0f
=42	=42	=42	=42
0F]	0F]	0c]	0f]
==	==	==	==
*-	*-	*-	*-
!!!CDT: 1525/^1526/-1594/2/2
!!!OCY: Italia
!!!AGN: Mass (Paraphrase)
!!!AST: renaissance, vocal
!!!ASW: Gregorian Mass
!!!PWK: Masses, Book 2
!!!RNB: Cadence finals: G,D,E,F,C
!!!YOR: Le Opere Complete, v. 4, p. 1
!!!YOO: Rome, Italy: Fratelli Scalera
!!!END: 1992//
!!!EED: John Miller
!!!YEC: Copyright 2000, John Miller
!!!YEN: United States of America
!!!YEM: Rights to all derivative electronic formats reserved.
!!!YEM: Refer to licensing agreement for further details.
!!!YEM: This file must be accompanied by the licensing agreement.
!!!YEM: A copy of the licensing agreement may be found at http://www.music-cog.ohio-state.edu/HumdrumDatabases/Palestrina/license.txt
!!!EMD: converted to Humdrum by Bret Aarden
